svgs/thin/passport.svg

<svg xmlns="http://www.w3.org/2000/svg" viewBox="0 0 448 512"><!-- Font Awesome Pro 6.0.0-alpha2 by @fontawesome - https://fontawesome.com License - https://fontawesome.com/license (Commercial License) --><path d="M384 0H64C28.654 0 0 28.654 0 64V448C0 483.346 28.654 512 64 512H384C419.199 512 448 483.199 448 448V64C448 28.801 419.199 0 384 0ZM432 448C432 474.467 410.467 496 384 496H64C37.533 496 16 474.467 16 448V64C16 37.533 37.533 16 64 16H384C410.467 16 432 37.533 432 64V448ZM224 64C153.307 64 96 121.307 96 192S153.307 320 224 320S352 262.693 352 192S294.693 64 224 64ZM224 80C232.926 80 254.047 116.592 255.691 184H192.309C193.953 116.592 215.074 80 224 80ZM199.137 83C186.135 104.141 177.312 141.098 176.303 184H112.809C116.389 134.453 151.912 93.781 199.137 83ZM112.809 200H176.303C177.313 242.902 186.135 279.859 199.137 301C151.912 290.219 116.389 249.547 112.809 200ZM224 304C215.074 304 193.953 267.408 192.309 200H255.691C254.047 267.408 232.926 304 224 304ZM248.863 301C261.865 279.859 270.687 242.902 271.697 200H335.191C331.611 249.547 296.088 290.219 248.863 301ZM271.697 184C270.688 141.098 261.865 104.141 248.863 83C296.088 93.781 331.611 134.453 335.191 184H271.697ZM344 384H104C99.594 384 96 387.578 96 392S99.594 400 104 400H344C348.406 400 352 396.422 352 392S348.406 384 344 384Z"/></svg>

<svg xmlns="http://www.w3.org/2000/svg" viewBox="0 0 448 512"><!--! Font Awesome Pro 6.3.0 by @fontawesome - https://fontawesome.com License - https://fontawesome.com/license (Commercial License) Copyright 2023 Fonticons, Inc. --><path d="M384 0H64C28.65 0 0 28.65 0 64v384c0 35.35 28.65 64 64 64h320c35.2 0 64-28.8 64-64V64C448 28.8 419.2 0 384 0zM432 448c0 26.47-21.53 48-48 48H64c-26.47 0-48-21.53-48-48V64c0-26.47 21.53-48 48-48h320c26.47 0 48 21.53 48 48V448zM224 64C153.3 64 96 121.3 96 192s57.31 128 128 128s128-57.31 128-128S294.7 64 224 64zM224 80c8.926 0 30.05 36.59 31.69 104H192.3C193.1 116.6 215.1 80 224 80zM199.1 83C186.1 104.1 177.3 141.1 176.3 184H112.8C116.4 134.5 151.9 93.78 199.1 83zM112.8 200h63.49c1.01 42.9 9.832 79.86 22.83 101C151.9 290.2 116.4 249.5 112.8 200zM224 304c-8.926 0-30.05-36.59-31.69-104h63.38C254 267.4 232.9 304 224 304zM248.9 301c13-21.14 21.82-58.1 22.83-101h63.49C331.6 249.5 296.1 290.2 248.9 301zM271.7 184c-1.01-42.9-9.832-79.86-22.83-101c47.22 10.78 82.75 51.45 86.33 101H271.7zM344 384h-240C99.59 384 96 387.6 96 392s3.594 8 8 8h240c4.406 0 8-3.578 8-8S348.4 384 344 384z"/></svg>
